X:2675
T:Carnival tune (fr Limoux ?)
S:Learnt in the course of a festival somewhere in the Corbieres
R:Other
O:France
N:said to be from Limoux
M:6/8
A:Aude
K:D
A|\
d2A F2A|(d3 d2)A|d2A d2A|(B3 B2)B|\
e2d c2B|(A3 A2)A|c2B A2G|(F3 F2)A|
d2A F2A|(d3 d2)A|d2A d2A|(B3 B2)B|\
e2d c2B|A2G F3|EFG ABc|d6||
K:A
A2c e2c|d2B F3|d2B F3|GAB E3|\
A2c e2c|d2B F3|EGB d2G|A6:|


